v3/src/assets/plugins/plugin-space-time-cube-icon.svg

<?xml version="1.0" encoding="UTF-8"?>
<svg viewBox="0 0 24 24" version="1.1" xmlns="http://www.w3.org/2000/svg" xmlns:xlink="http://www.w3.org/1999/xlink">
    <title>DAC7CD00-220E-4100-AF76-D0789DA99D92</title>
    <g id="Plugin-Space-Time-Cube-ICON" stroke="none" fill="none">
        <rect id="Rectangle" fill-rule="nonzero" x="0" y="0" width="24" height="24"></rect>
        <path d="M4,17.7 C3.68333333,17.5166667 3.4375,17.275 3.2625,16.975 C3.0875,16.675 3,16.3416667 3,15.975 L3,8.025 C3,7.65833333 3.0875,7.325 3.2625,7.025 C3.4375,6.725 3.68333333,6.48333333 4,6.3 L11,2.275 C11.3166667,2.09166667 11.65,2 12,2 C12.35,2 12.6833333,2.09166667 13,2.275 L20,6.3 C20.3166667,6.48333333 20.5625,6.725 20.7375,7.025 C20.9125,7.325 21,7.65833333 21,8.025 L21,15.975 C21,16.3416667 20.9125,16.675 20.7375,16.975 C20.5625,17.275 20.3166667,17.5166667 20,17.7 L13,21.725 C12.6833333,21.9083333 12.35,22 12,22 C11.65,22 11.3166667,21.9083333 11,21.725 L4,17.7 Z" id="Path" fill="#006C8E" fill-rule="evenodd"></path>
        <path d="M5,9.1 L11,12.575 L11,19.425 L5,15.95 L5,9.1 Z M19,9.1 L19,15.95 L13,19.425 L13,12.575 L19,9.1 Z M12,4 L17.925,7.425 L12,10.85 L6.075,7.425 L12,4 Z" id="Shape" fill="#D3F4FF" fill-rule="evenodd"></path>
    </g>
</svg>

<svg viewBox="0 0 24 24" xmlns="http://www.w3.org/2000/svg">
    <g fill="none">
        <path d="M0 0h24v24H0z"/>
        <path d="M4 17.7a1.948 1.948 0 0 1-1-1.725v-7.95A1.948 1.948 0 0 1 4 6.3l7-4.025c.317-.183.65-.275 1-.275s.683.092 1 .275L20 6.3a1.948 1.948 0 0 1 1 1.725v7.95a1.948 1.948 0 0 1-1 1.725l-7 4.025c-.317.183-.65.275-1 .275s-.683-.092-1-.275L4 17.7z" fill="#006C8E" fill-rule="evenodd"/>
        <path d="m5 9.1 6 3.475v6.85L5 15.95V9.1zm14 0v6.85l-6 3.475v-6.85L19 9.1zM12 4l5.925 3.425L12 10.85 6.075 7.425 12 4z" fill="#D3F4FF" fill-rule="evenodd"/>
    </g>
</svg>
